X:1429
T:Deutscher Tanz
C:Melchior Franck
O:Germany
B:Franck 1604
R:Allemande
Z:Transcribed by Frank Nordberg - http://www.musicaviva.com
F:http://abc.musicaviva.com/tunes/franck-melchior/franck-deutscher-tanz-01.abc
M:C|
L:1/4
Q:1/2=120
K:Gdor
G|GBAG|d>efd|cBc_e|d>cBA/G/|
^FGGF|G2 z::g|f>edf|e>dc_e|
d>cBd|c>BAf|edd^c|d2 z::d|e>fgc|
d>efA|B>cdG|A>BcB|AGG^F|G2 z:|
W:
W:
W:  From Musica Viva - http://www.musicaviva.com
W:  the Internet center for free sheet music downloads.
